X:66
T:66 A Jig By Greenland
C:Aylmore MS
I:abc2nwc
M:6/8
L:1/8
K:G
G|d2d cdc|B2B BcB|G2G GAB|A3D3|d2d ded|B2B BcB|A2d de^c|d3d2:|
d|e2c cde|d2B Bcd|c2A ABc|A3D3|d2d def|g2d ded|B2B AGA|G3-G2:|


